assets/wondersharefilmora/mono.svg

<svg viewBox="0 0 24 24" xmlns="http://www.w3.org/2000/svg"><path d="m5.475 0a5.463 5.463 0 0 0 -5.475 5.475v13.05a5.463 5.463 0 0 0 5.475 5.475h13.05a5.463 5.463 0 0 0 5.475-5.475v-13.05a5.463 5.463 0 0 0 -5.475-5.475zm4.552 3.6 4.026 4.029-4.617 4.623-.022-.023a1.088 1.088 0 0 0 -.158-1.339l-3.257-3.26zm4.501 4.4 4.027 4.03-8.528 8.536-4.027-4.03z"/></svg>

<svg xmlns="http://www.w3.org/2000/svg" viewBox="0 0 24 24"><path d="M5.475 0A5.463 5.463 0 0 0 0 5.475v13.05A5.463 5.463 0 0 0 5.475 24h13.05A5.463 5.463 0 0 0 24 18.525V5.475A5.463 5.463 0 0 0 18.525 0zm4.552 3.6 4.026 4.029-4.617 4.623-.022-.023a1.09 1.09 0 0 0-.158-1.339L5.999 7.63zM14.528 8l4.027 4.03-8.528 8.536L6 16.536z"/></svg>
